X:260
T:Polska efter Magnus Theorin (260)
R:Slängpolska
Z:2007-09-05
S:Efter Magnus Theorin
S:Känd genom [[Grupper/Sågskära]]
B:[[Notböcker/Småländsk musiktradition]] nr I-260
O:Växjö, Småland
M:3/4
L:1/8
K:Dm
dD FA df|eA ce gf|ed gf ed|cB/2c/2 A2A2|
dD FA df|eA ce gf|ed gf ed|cB/2c/2 d2d2:|
|:aF Fa af|gE Eg ge|f2d2 gf/2e/2|cB/2c/2 A2A2|
aF Fa af|gE Eg ge|fd aa gf|ed/2c/2 d2d2:|

